X:1
T:The Man Who Wrote Home Sweet Home
M:4/4
L:1/8
K:D
 D2 D2 E4| FF FF F4| F2 D2 F3 E| D8| z4 z2 D2| D2 D D/2D/2 E2 E2| F F- F2 F3 F|\
 E E- E2 G2 G2| F8| z8| G G- G2 GG F2| D D- D2 D2 DF| FF F2 F2 F2|\
 D D- D2 D4| z4 z2 A,A,| D3 D E3 E| F2 F2 F4| FF DD F2 E2| D8| z4 z2 A,2|\
 D D- D2 E2 E2| F F2 F- F3 F| EE EE F2 G2| F8| z4 z2 F2| GG GG G2 FF|\
 DD D2 D2 F2| F2 F F- F2 FE| D2 D2 D4| z4 z2 A,A,| D3 D E3 E| F2 F2 F4|\
 FF DD F2 E2| D8|
